; generated by Slic3r 1.2.9 on 2020-02-05 at 16:02:53

; external perimeters extrusion width = 0.40mm
; perimeters extrusion width = 0.67mm
; infill extrusion width = 0.67mm
; solid infill extrusion width = 0.67mm
; top infill extrusion width = 0.67mm

M190 S60 ; set bed temperature
M104 S200 ; set temperature
G28 ; home all axes
G1 Z5 F5000 ; lift nozzle

M109 S200 ; wait for temperature to be reached
G21 ; set units to millimeters
G90 ; use absolute coordinates
M82 ; use absolute distances for extrusion
G92 E0
M106 S127.5
G1 Z0.300 F2700.000
G1 E-2.00000 F2400.00000
G92 E0
G1 X78.042 Y78.042 F2700.000
G1 E2.00000 F2400.00000
G1 X78.630 Y77.481 E2.01625 F2700.000
G1 X79.072 Y77.093 E2.02798
G1 X79.645 Y76.629 E2.04272
G1 X80.238 Y76.190 E2.05746
G1 X80.977 Y75.696 E2.07521
G1 X81.479 Y75.392 E2.08694
G1 X82.124 Y75.034 E2.10168
G1 X82.785 Y74.705 E2.11642
G1 X83.459 Y74.405 E2.13116
G1 X84.287 Y74.083 E2.14891
G1 X84.987 Y73.849 E2.16365
G1 X85.550 Y73.684 E2.17538
G1 X86.266 Y73.506 E2.19012
G1 X86.989 Y73.358 E2.20486
G1 X87.867 Y73.223 E2.22262
G1 X91.367 Y72.840 E2.29295
G1 X91.696 Y73.135 E2.30178
G1 X91.816 Y73.189 E2.30440 F2700.000
G1 X92.863 Y73.332 E2.32550
G1 X93.587 Y73.473 E2.34024
G1 X94.450 Y73.684 E2.35800
G1 X95.157 Y73.894 E2.37274
G1 X95.855 Y74.134 E2.38748
G1 X96.541 Y74.405 E2.40222
G1 X97.215 Y74.705 E2.41696
G1 X97.742 Y74.965 E2.42869
G1 X98.391 Y75.317 E2.44343
G1 X99.023 Y75.697 E2.45817
G1 X99.638 Y76.104 E2.47291
G1 X100.235 Y76.537 E2.48765
G1 X100.813 Y76.997 E2.50239
G1 X101.370 Y77.481 E2.51713
G1 X101.905 Y77.988 E2.53187
G1 X102.417 Y78.519 E2.54661
G1 X102.906 Y79.072 E2.56135
G1 X103.371 Y79.645 E2.57609
G1 X103.810 Y80.238 E2.59083
G1 X104.222 Y80.850 E2.60557
G1 X104.608 Y81.479 E2.62031
G1 X104.966 Y82.124 E2.63506
G1 X105.252 Y82.698 E2.64786
G1 X105.653 Y83.598 E2.66755
G1 X105.917 Y84.287 E2.68229
G1 X106.151 Y84.986 E2.69703
G1 X106.355 Y85.696 E2.71177
G1 X106.527 Y86.413 E2.72651
G1 X106.668 Y87.138 E2.74125
G1 X106.777 Y87.867 E2.75599
G1 X106.854 Y88.601 E2.77073
G1 X106.892 Y89.187 E2.78246
G1 X106.912 Y89.924 E2.79720
G1 X106.899 Y90.663 E2.81195
G1 X106.854 Y91.398 E2.82667
G1 X106.777 Y92.133 E2.84143
G1 X106.668 Y92.862 E2.85616
G1 X106.527 Y93.587 E2.87091
G1 X106.355 Y94.304 E2.88564
G1 X106.152 Y95.013 E2.90038
G1 X105.917 Y95.713 E2.91513
G1 X105.653 Y96.402 E2.92986
G1 X105.359 Y97.079 E2.94461
G1 X105.036 Y97.742 E2.95935
G1 X104.684 Y98.390 E2.97408
G1 X104.303 Y99.023 E2.98883
G1 X103.896 Y99.638 E3.00357
G1 X103.463 Y100.235 E3.01831
G1 X103.003 Y100.813 E3.03305
G1 X102.519 Y101.370 E3.04779
G1 X102.011 Y101.905 E3.06254
G1 X101.481 Y102.417 E3.07727
G1 X100.928 Y102.906 E3.09201
G1 X100.431 Y103.310 E3.10481
G1 X99.638 Y103.896 E3.12450
G1 X99.023 Y104.303 E3.13924
G1 X98.391 Y104.683 E3.15398
G1 X97.742 Y105.036 E3.16873
G1 X97.079 Y105.359 E3.18347
G1 X96.402 Y105.653 E3.19821
G1 X95.713 Y105.917 E3.21295
G1 X95.157 Y106.106 E3.22468
G1 X94.450 Y106.316 E3.23942
G1 X93.734 Y106.494 E3.25417
G1 X93.011 Y106.642 E3.26890
G1 X92.282 Y106.757 E3.28364
G1 X91.550 Y106.841 E3.29837
G1 X90.813 Y106.892 E3.31312
G1 X90.075 Y106.912 E3.32786
G1 X89.337 Y106.899 E3.34261
G1 X88.602 Y106.854 E3.35734
G1 X87.867 Y106.777 E3.37209
G1 X87.138 Y106.668 E3.38683
G1 X86.413 Y106.527 E3.40156
G1 X85.696 Y106.355 E3.41630
G1 X84.987 Y106.151 E3.43104
G1 X84.287 Y105.917 E3.44578
G1 X83.459 Y105.595 E3.46354
G1 X82.785 Y105.295 E3.47828
G1 X82.124 Y104.966 E3.49302
G1 X81.479 Y104.608 E3.50776
G1 X80.850 Y104.222 E3.52250
G1 X80.238 Y103.810 E3.53724
G1 X79.645 Y103.371 E3.55198
G1 X79.072 Y102.907 E3.56672
G1 X78.519 Y102.418 E3.58146
G1 X77.988 Y101.905 E3.59621
G1 X77.481 Y101.370 E3.61094
G1 X76.997 Y100.813 E3.62569
G1 X76.537 Y100.235 E3.64043
G1 X76.104 Y99.638 E3.65517
G1 X75.697 Y99.023 E3.66991
G1 X75.392 Y98.521 E3.68164
G1 X75.034 Y97.876 E3.69638
G1 X74.641 Y97.079 E3.71413
G1 X74.405 Y96.541 E3.72586
G1 X74.134 Y95.855 E3.74060
G1 X73.894 Y95.157 E3.75534
G1 X73.684 Y94.450 E3.77008
G1 X73.473 Y93.587 E3.78783
G1 X73.358 Y93.011 E3.79957
G1 X73.243 Y92.282 E3.81431
G1 X72.840 Y88.633 E3.88764
G1 X73.135 Y88.304 E3.89648
G1 X73.189 Y88.184 E3.89910
G1 X73.359 Y86.989 E3.92321
G1 X73.506 Y86.266 E3.93795
G1 X73.684 Y85.550 E3.95269
G1 X73.894 Y84.843 E3.96743
G1 X74.134 Y84.145 E3.98218
G1 X74.405 Y83.459 E3.99691
G1 X74.705 Y82.785 E4.01166
G1 X75.034 Y82.124 E4.02640
G1 X75.392 Y81.479 E4.04114
G1 X75.778 Y80.850 E4.05588
G1 X76.190 Y80.238 E4.07062
G1 X76.629 Y79.645 E4.08536
G1 X77.093 Y79.072 E4.10010
G1 X77.582 Y78.519 E4.11484
G1 X77.999 Y78.084 E4.12688
G1 X78.296 Y78.380 F2700.000
G1 X78.910 Y77.793 E4.14387 F2700.000
G1 X79.453 Y77.320 E4.15824
G1 X80.408 Y76.585 E4.18231
G1 X81.079 Y76.128 E4.19853
G1 X81.692 Y75.752 E4.21291
G1 X82.447 Y75.338 E4.23011
G1 X83.094 Y75.023 E4.24449
G1 X83.754 Y74.736 E4.25886
G1 X84.885 Y74.322 E4.28293
G1 X85.663 Y74.088 E4.29915
G1 X86.361 Y73.914 E4.31353
G1 X87.066 Y73.770 E4.32791
G1 X87.918 Y73.639 E4.34511
G1 X91.227 Y73.277 E4.41161
G1 X91.517 Y73.537 E4.41940 F2700.000
G1 X91.636 Y73.590 E4.42202
G1 X92.223 Y73.658 E4.43381
G1 X92.934 Y73.770 E4.44819
G1 X93.639 Y73.914 E4.46256
G1 X94.337 Y74.088 E4.47694
G1 X94.892 Y74.249 E4.48849
G1 X95.575 Y74.478 E4.50287
G1 X96.246 Y74.736 E4.51723
G1 X96.906 Y75.023 E4.53161
G1 X97.553 Y75.338 E4.54599
G1 X98.185 Y75.682 E4.56036
G1 X98.802 Y76.052 E4.57474
G1 X99.325 Y76.398 E4.58726
G1 X100.096 Y76.959 E4.60632
G1 X100.655 Y77.411 E4.62069
G1 X101.195 Y77.888 E4.63507
G1 X101.712 Y78.388 E4.64944
G1 X102.207 Y78.910 E4.66382
G1 X102.680 Y79.453 E4.67819
G1 X103.041 Y79.904 E4.68974
G1 X103.469 Y80.482 E4.70411
G1 X103.872 Y81.079 E4.71849
G1 X104.247 Y81.692 E4.73286
G1 X104.597 Y82.322 E4.74725
G1 X104.918 Y82.966 E4.76162
G1 X105.210 Y83.623 E4.77599
G1 X105.474 Y84.293 E4.79037
G1 X105.678 Y84.885 E4.80289
G1 X105.949 Y85.800 E4.82195
G1 X106.117 Y86.500 E4.83632
G1 X106.254 Y87.206 E4.85070
G1 X106.361 Y87.918 E4.86508
G1 X106.436 Y88.633 E4.87945
G1 X106.480 Y89.351 E4.89383
G1 X106.493 Y90.071 E4.90820
G1 X106.474 Y90.790 E4.92258
G1 X106.424 Y91.508 E4.93695
G1 X106.342 Y92.223 E4.95133
G1 X106.230 Y92.934 E4.96570
G1 X106.086 Y93.639 E4.98008
G1 X105.912 Y94.337 E4.99445
G1 X105.708 Y95.027 E5.00883
G1 X105.522 Y95.574 E5.02037
G1 X105.264 Y96.246 E5.03475
G1 X104.977 Y96.906 E5.04913
G1 X104.662 Y97.553 E5.06350
G1 X104.319 Y98.185 E5.07787
G1 X103.948 Y98.802 E5.09226
G1 X103.551 Y99.402 E5.10663
G1 X103.128 Y99.984 E5.12100
G1 X102.680 Y100.547 E5.13538
G1 X102.207 Y101.090 E5.14976
G1 X101.712 Y101.612 E5.16413
G1 X101.195 Y102.112 E5.17850
G1 X100.656 Y102.588 E5.19288
G1 X100.096 Y103.041 E5.20726
G1 X99.518 Y103.469 E5.22163
G1 X98.921 Y103.872 E5.23601
G1 X98.308 Y104.247 E5.25038
G1 X97.553 Y104.662 E5.26759
G1 X96.906 Y104.977 E5.28196
G1 X96.246 Y105.264 E5.29634
G1 X95.574 Y105.522 E5.31072
G1 X94.892 Y105.751 E5.32509
G1 X94.200 Y105.949 E5.33947
G1 X93.638 Y106.086 E5.35102
G1 X92.934 Y106.230 E5.36539
G1 X92.223 Y106.342 E5.37976
G1 X91.508 Y106.424 E5.39413
G1 X90.790 Y106.474 E5.40852
G1 X90.071 Y106.493 E5.42289
G1 X89.351 Y106.480 E5.43727
G1 X88.634 Y106.436 E5.45163
G1 X87.917 Y106.361 E5.46603
G1 X87.206 Y106.254 E5.48039
G1 X86.500 Y106.117 E5.49476
G1 X85.800 Y105.949 E5.50914
G1 X85.108 Y105.751 E5.52352
G1 X84.426 Y105.522 E5.53789
G1 X83.754 Y105.264 E5.55227
G1 X83.094 Y104.977 E5.56664
G1 X82.448 Y104.662 E5.58102
G1 X81.692 Y104.248 E5.59822
G1 X81.079 Y103.872 E5.61260
G1 X80.482 Y103.469 E5.62698
G1 X79.904 Y103.041 E5.64135
G1 X79.344 Y102.589 E5.65573
G1 X78.806 Y102.112 E5.67010
G1 X78.288 Y101.612 E5.68448
G1 X77.793 Y101.090 E5.69885
G1 X77.320 Y100.547 E5.71323
G1 X76.872 Y99.984 E5.72760
G1 X76.449 Y99.402 E5.74198
G1 X76.052 Y98.802 E5.75635
G1 X75.682 Y98.185 E5.77073
G1 X75.404 Y97.678 E5.78228
G1 X75.082 Y97.034 E5.79666
G1 X74.790 Y96.377 E5.81103
G1 X74.560 Y95.794 E5.82355
G1 X74.249 Y94.892 E5.84261
G1 X74.051 Y94.200 E5.85698
G1 X73.914 Y93.639 E5.86853
G1 X73.746 Y92.794 E5.88573
G1 X73.639 Y92.082 E5.90011
G1 X73.277 Y88.773 E5.96661
G1 X73.537 Y88.483 E5.97439
G1 X73.590 Y88.364 E5.97702
G1 X73.658 Y87.777 E5.98881
G1 X73.770 Y87.066 E6.00319
G1 X73.914 Y86.361 E6.01756
G1 X74.088 Y85.663 E6.03194
G1 X74.292 Y84.973 E6.04631
G1 X74.526 Y84.293 E6.06069
G1 X74.790 Y83.623 E6.07506
G1 X75.083 Y82.966 E6.08944
G1 X75.338 Y82.447 E6.10099
G1 X75.682 Y81.815 E6.11537
G1 X76.052 Y81.198 E6.12974
G1 X76.449 Y80.598 E6.14411
G1 X76.872 Y80.016 E6.15849
G1 X77.320 Y79.453 E6.17286
G1 X77.792 Y78.910 E6.18723
G1 X78.254 Y78.424 E6.20063
G1 X78.556 Y78.713 F2700.000
G1 X79.092 Y78.194 E6.21553 F2700.000
G1 X79.719 Y77.644 E6.23219
G1 X80.655 Y76.923 E6.25580
G1 X81.308 Y76.479 E6.27157
G1 X82.020 Y76.047 E6.28822
G1 X82.637 Y75.712 E6.30223
G1 X83.707 Y75.211 E6.32585
G1 X84.440 Y74.918 E6.34162
G1 X85.104 Y74.690 E6.35563
G1 X85.904 Y74.457 E6.37228
G1 X87.057 Y74.199 E6.39589
G1 X87.836 Y74.072 E6.41166
G1 X91.086 Y73.714 E6.47698
G1 X91.337 Y73.939 E6.48372
G1 X91.457 Y73.992 E6.48634 F2700.000
G1 X92.164 Y74.072 E6.50055
G1 X92.856 Y74.182 E6.51456
G1 X93.544 Y74.322 E6.52857
G1 X94.224 Y74.491 E6.54258
G1 X95.436 Y74.873 E6.56795
G1 X96.090 Y75.124 E6.58195
G1 X96.733 Y75.404 E6.59597
G1 X97.363 Y75.712 E6.60998
G1 X97.980 Y76.047 E6.62399
G1 X98.581 Y76.408 E6.63800
G1 X99.092 Y76.746 E6.65025
G1 X99.838 Y77.288 E6.66867
G1 X100.383 Y77.729 E6.68267
G1 X100.908 Y78.194 E6.69669
G1 X101.413 Y78.681 E6.71070
G1 X101.896 Y79.190 E6.72471
G1 X102.712 Y80.162 E6.75008
G1 X103.129 Y80.726 E6.76408
G1 X103.521 Y81.308 E6.77809
G1 X103.887 Y81.906 E6.79210
G1 X104.227 Y82.519 E6.80612
G1 X104.540 Y83.147 E6.82013
G1 X104.825 Y83.787 E6.83413
G1 X105.082 Y84.440 E6.84815
G1 X105.310 Y85.103 E6.86216
G1 X105.509 Y85.776 E6.87617
G1 X105.678 Y86.457 E6.89019
G1 X105.818 Y87.144 E6.90419
G1 X105.928 Y87.837 E6.91821
G1 X106.007 Y88.533 E6.93220
G1 X106.056 Y89.233 E6.94622
G1 X106.074 Y89.934 E6.96023
G1 X106.061 Y90.635 E6.97425
G1 X106.018 Y91.335 E6.98825
G1 X105.945 Y92.033 E7.00227
G1 X105.841 Y92.726 E7.01627
G1 X105.724 Y93.328 E7.02853
G1 X105.509 Y94.224 E7.04694
G1 X105.310 Y94.897 E7.06095
G1 X105.082 Y95.560 E7.07496
G1 X104.825 Y96.212 E7.08897
G1 X104.540 Y96.853 E7.10298
G1 X104.227 Y97.481 E7.11699
G1 X103.887 Y98.094 E7.13100
G1 X103.521 Y98.692 E7.14501
G1 X103.129 Y99.274 E7.15902
G1 X102.712 Y99.838 E7.17303
G1 X102.271 Y100.383 E7.18704
G1 X101.806 Y100.908 E7.20105
G1 X101.319 Y101.413 E7.21507
G1 X100.810 Y101.896 E7.22907
G1 X100.281 Y102.356 E7.24308
G1 X99.733 Y102.792 E7.25710
G1 X99.165 Y103.205 E7.27110
G1 X98.581 Y103.592 E7.28512
G1 X97.980 Y103.953 E7.29912
G1 X96.853 Y104.540 E7.32450
G1 X96.213 Y104.825 E7.33850
G1 X95.560 Y105.082 E7.35252
G1 X94.897 Y105.310 E7.36653
G1 X94.224 Y105.509 E7.38054
G1 X93.543 Y105.678 E7.39456
G1 X92.856 Y105.818 E7.40856
G1 X92.164 Y105.928 E7.42257
G1 X91.467 Y106.007 E7.43657
G1 X90.767 Y106.056 E7.45059
G1 X90.066 Y106.074 E7.46460
G1 X89.365 Y106.061 E7.47861
G1 X88.665 Y106.018 E7.49261
G1 X87.836 Y105.928 E7.50928
G1 X87.144 Y105.818 E7.52329
G1 X86.456 Y105.678 E7.53730
G1 X85.776 Y105.509 E7.55131
G1 X85.103 Y105.310 E7.56532
G1 X84.440 Y105.082 E7.57933
G1 X83.788 Y104.825 E7.59334
G1 X83.147 Y104.540 E7.60735
G1 X82.519 Y104.227 E7.62136
G1 X81.419 Y103.592 E7.64673
G1 X80.835 Y103.205 E7.66074
G1 X80.267 Y102.792 E7.67475
G1 X79.719 Y102.356 E7.68876
G1 X79.190 Y101.896 E7.70277
G1 X78.681 Y101.413 E7.71679
G1 X78.194 Y100.908 E7.73079
G1 X77.729 Y100.383 E7.74480
G1 X77.288 Y99.838 E7.75881
G1 X76.871 Y99.274 E7.77283
G1 X76.479 Y98.692 E7.78683
G1 X76.047 Y97.979 E7.80349
G1 X75.712 Y97.363 E7.81750
G1 X75.404 Y96.733 E7.83151
G1 X74.918 Y95.560 E7.85688
G1 X74.690 Y94.897 E7.87089
G1 X74.491 Y94.224 E7.88490
G1 X74.293 Y93.414 E7.90156
G1 X74.072 Y92.163 E7.92693
G1 X73.714 Y88.914 E7.99225
G1 X73.939 Y88.663 E7.99898
G1 X73.992 Y88.543 E8.00161
G1 X74.072 Y87.836 E8.01581
G1 X74.182 Y87.144 E8.02983
G1 X74.436 Y85.989 E8.05344
G1 X74.650 Y85.230 E8.06921
G1 X74.873 Y84.564 E8.08322
G1 X75.124 Y83.910 E8.09722
G1 X75.460 Y83.147 E8.11388
G1 X76.047 Y82.020 E8.13926
G1 X76.408 Y81.419 E8.15326
G1 X76.795 Y80.835 E8.16727
G1 X77.208 Y80.267 E8.18128
G1 X77.644 Y79.719 E8.19529
G1 X78.104 Y79.190 E8.20930
G1 X78.515 Y78.757 E8.22122
G1 X78.818 Y79.046 F2700.000
G1 X79.378 Y78.500 E8.23687 F2700.000
G1 X79.890 Y78.047 E8.25051
G1 X80.421 Y77.618 E8.26416
G1 X81.071 Y77.141 E8.28027
G1 X81.641 Y76.764 E8.29391
G1 X82.717 Y76.142 E8.31873
G1 X83.328 Y75.838 E8.33238
G1 X84.066 Y75.513 E8.34849
G1 X85.155 Y75.115 E8.37164
G1 X85.889 Y74.895 E8.38695
G1 X86.551 Y74.730 E8.40060
G1 X87.221 Y74.594 E8.41425
G1 X88.018 Y74.471 E8.43035
G1 X90.946 Y74.150 E8.48920
G1 X91.162 Y74.344 E8.49499 F2700.000
G1 X91.286 Y74.398 E8.49771
G1 X91.982 Y74.471 E8.51168
G1 X92.658 Y74.572 E8.52533
G1 X93.449 Y74.730 E8.54144
G1 X94.111 Y74.895 E8.55508
G1 X95.297 Y75.268 E8.57991
G1 X95.934 Y75.513 E8.59354
G1 X96.560 Y75.786 E8.60719
G1 X97.283 Y76.142 E8.62331
G1 X97.881 Y76.473 E8.63695
G1 X98.463 Y76.830 E8.65059
G1 X99.481 Y77.543 E8.67542
G1 X100.015 Y77.968 E8.68906
G1 X100.531 Y78.416 E8.70271
G1 X101.026 Y78.887 E8.71635
G1 X101.500 Y79.378 E8.72999
G1 X101.953 Y79.890 E8.74364
G1 X102.382 Y80.421 E8.75729
G1 X102.788 Y80.970 E8.77093
G1 X103.170 Y81.536 E8.78458
G1 X103.527 Y82.119 E8.79822
G1 X103.817 Y82.643 E8.81020
G1 X104.214 Y83.440 E8.82798
G1 X104.487 Y84.066 E8.84162
G1 X104.732 Y84.704 E8.85527
G1 X104.949 Y85.351 E8.86891
G1 X105.137 Y86.008 E8.88256
G1 X105.297 Y86.672 E8.89621
G1 X105.428 Y87.342 E8.90985
G1 X105.529 Y88.018 E8.92350
G1 X105.601 Y88.697 E8.93714
G1 X105.643 Y89.379 E8.95079
G1 X105.655 Y90.062 E8.96443
G1 X105.637 Y90.745 E8.97808
G1 X105.590 Y91.426 E8.99172
G1 X105.513 Y92.105 E9.00537
G1 X105.406 Y92.779 E9.01901
G1 X105.270 Y93.449 E9.03266
G1 X105.105 Y94.111 E9.04630
G1 X104.732 Y95.296 E9.07112
G1 X104.487 Y95.934 E9.08476
G1 X104.214 Y96.560 E9.09841
G1 X103.915 Y97.174 E9.11206
G1 X103.588 Y97.774 E9.12570
G1 X103.236 Y98.360 E9.13935
G1 X102.859 Y98.929 E9.15300
G1 X102.457 Y99.481 E9.16664
G1 X102.032 Y100.015 E9.18028
G1 X101.584 Y100.531 E9.19393
G1 X101.113 Y101.026 E9.20758
G1 X100.622 Y101.500 E9.22122
G1 X100.110 Y101.953 E9.23486
G1 X99.579 Y102.382 E9.24851
G1 X99.030 Y102.788 E9.26215
G1 X98.463 Y103.170 E9.27580
G1 X97.881 Y103.527 E9.28944
G1 X97.174 Y103.915 E9.30556
G1 X96.560 Y104.214 E9.31920
G1 X95.934 Y104.487 E9.33285
G1 X95.296 Y104.732 E9.34649
G1 X94.649 Y104.949 E9.36014
G1 X93.448 Y105.271 E9.38497
G1 X92.779 Y105.406 E9.39861
G1 X92.105 Y105.513 E9.41225
G1 X91.426 Y105.590 E9.42589
G1 X90.744 Y105.637 E9.43954
G1 X90.062 Y105.655 E9.45319
G1 X89.379 Y105.643 E9.46684
G1 X88.697 Y105.601 E9.48047
G1 X88.017 Y105.529 E9.49413
G1 X87.342 Y105.428 E9.50777
G1 X86.672 Y105.297 E9.52141
G1 X86.008 Y105.137 E9.53505
G1 X85.351 Y104.949 E9.54870
G1 X84.704 Y104.732 E9.56235
G1 X84.066 Y104.487 E9.57599
G1 X83.440 Y104.214 E9.58964
G1 X82.826 Y103.915 E9.60328
G1 X82.119 Y103.527 E9.61939
G1 X81.537 Y103.170 E9.63304
G1 X80.970 Y102.788 E9.64669
G1 X80.421 Y102.382 E9.66033
G1 X79.890 Y101.953 E9.67397
G1 X79.378 Y101.500 E9.68762
G1 X78.887 Y101.026 E9.70127
G1 X78.416 Y100.531 E9.71491
G1 X77.968 Y100.016 E9.72856
G1 X77.543 Y99.481 E9.74220
G1 X77.141 Y98.929 E9.75585
G1 X76.764 Y98.359 E9.76949
G1 X76.412 Y97.774 E9.78314
G1 X75.838 Y96.672 E9.80796
G1 X75.560 Y96.048 E9.82160
G1 X75.341 Y95.490 E9.83358
G1 X75.051 Y94.649 E9.85136
G1 X74.730 Y93.448 E9.87618
G1 X74.572 Y92.658 E9.89229
G1 X74.471 Y91.982 E9.90593
G1 X74.150 Y89.054 E9.96478
G1 X74.344 Y88.838 E9.97057
G1 X74.398 Y88.714 E9.97329
G1 X74.471 Y88.018 E9.98726
G1 X74.572 Y87.342 E10.00091
G1 X74.703 Y86.672 E10.01455
G1 X74.895 Y85.889 E10.03066
G1 X75.268 Y84.703 E10.05549
G1 X75.513 Y84.066 E10.06913
G1 X75.786 Y83.440 E10.08277
G1 X76.086 Y82.826 E10.09642
G1 X76.412 Y82.226 E10.11007
