; generated by Slic3r 1.2.9 on 2020-02-05 at 16:26:09

; external perimeters extrusion width = 0.40mm
; perimeters extrusion width = 0.68mm
; infill extrusion width = 1.28mm
; solid infill extrusion width = 0.68mm
; top infill extrusion width = 0.68mm

M190 S60 ; set bed temperature
M104 S200 ; set temperature
G28 ; home all axes
G1 Z5 F5000 ; lift nozzle

M109 S200 ; wait for temperature to be reached
G21 ; set units to millimeters
G90 ; use absolute coordinates
M82 ; use absolute distances for extrusion
G92 E0
G1 Z0.200 F900.000
G1 E-2.00000 F2400.00000
G92 E0
G1 X77.819 Y77.821 F900.000
G1 E2.00000 F2400.00000
G1 X78.421 Y77.247 E2.01662 F900.000
G1 X78.988 Y76.754 E2.03163
G1 X79.980 Y75.990 E2.05665
G1 X80.678 Y75.514 E2.07352
G1 X81.319 Y75.122 E2.08853
G1 X81.976 Y74.757 E2.10356
G1 X82.792 Y74.355 E2.12171
G1 X83.481 Y74.055 E2.13673
G1 X84.182 Y73.786 E2.15174
G1 X85.376 Y73.408 E2.17675
G1 X86.195 Y73.200 E2.19363
G1 X86.932 Y73.050 E2.20865
G1 X87.830 Y72.911 E2.22681
G1 X88.577 Y72.833 E2.24182
G1 X89.327 Y72.787 E2.25684
G1 X90.079 Y72.774 E2.27185
G1 X90.830 Y72.794 E2.28687 F900.000
G1 X91.423 Y72.833 E2.29873
G1 X92.327 Y72.932 E2.31689
G1 X93.069 Y73.050 E2.33191
G1 X93.651 Y73.166 E2.34377
G1 X94.534 Y73.382 E2.36194
G1 X95.255 Y73.595 E2.37695
G1 X95.818 Y73.786 E2.38882
G1 X96.665 Y74.116 E2.40698
G1 X97.351 Y74.422 E2.42200
G1 X99.623 Y75.542 E2.47260
G1 X99.773 Y75.784 E2.47829
G1 X99.861 Y75.876 E2.48083
G1 X100.549 Y76.382 E2.49789
G1 X101.133 Y76.855 E2.51290
G1 X101.579 Y77.247 E2.52477
G1 X102.125 Y77.764 E2.53978
G1 X102.647 Y78.304 E2.55480
G1 X103.145 Y78.867 E2.56982
G1 X103.618 Y79.451 E2.58483
G1 X104.065 Y80.055 E2.59984
G1 X104.486 Y80.678 E2.61485
G1 X104.878 Y81.319 E2.62987
G1 X105.316 Y82.116 E2.64803
G1 X105.645 Y82.792 E2.66305
G1 X105.945 Y83.481 E2.67806
G1 X106.214 Y84.183 E2.69308
G1 X106.452 Y84.895 E2.70810
G1 X106.659 Y85.618 E2.72310
G1 X106.800 Y86.195 E2.73497
G1 X106.950 Y86.931 E2.74997
G1 X107.068 Y87.674 E2.76500
G1 X107.153 Y88.420 E2.78000
G1 X107.206 Y89.169 E2.79502
G1 X107.226 Y89.921 E2.81003
G1 X107.206 Y90.830 E2.82821
G1 X107.153 Y91.580 E2.84323
G1 X107.068 Y92.327 E2.85824
G1 X106.950 Y93.069 E2.87325
G1 X106.800 Y93.805 E2.88827
G1 X106.618 Y94.534 E2.90328
G1 X106.405 Y95.255 E2.91830
G1 X106.160 Y95.965 E2.93331
G1 X105.884 Y96.665 E2.94833
G1 X105.578 Y97.351 E2.96334
G1 X105.243 Y98.024 E2.97835
G1 X104.878 Y98.681 E2.99337
G1 X104.486 Y99.322 E3.00838
G1 X104.065 Y99.945 E3.02340
G1 X103.618 Y100.549 E3.03841
G1 X103.145 Y101.133 E3.05342
G1 X102.647 Y101.696 E3.06844
G1 X102.125 Y102.236 E3.08345
G1 X101.579 Y102.753 E3.09847
G1 X101.012 Y103.246 E3.11348
G1 X100.424 Y103.714 E3.12850
G1 X99.816 Y104.156 E3.14351
G1 X99.189 Y104.570 E3.15852
G1 X98.544 Y104.957 E3.17354
G1 X97.884 Y105.316 E3.18855
G1 X97.208 Y105.645 E3.20357
G1 X96.519 Y105.945 E3.21858
G1 X95.817 Y106.214 E3.23360
G1 X95.105 Y106.452 E3.24861
G1 X94.382 Y106.659 E3.26362
G1 X93.651 Y106.834 E3.27864
G1 X92.914 Y106.978 E3.29365
G1 X92.170 Y107.089 E3.30867
G1 X91.423 Y107.167 E3.32368
G1 X90.673 Y107.213 E3.33870
G1 X89.921 Y107.226 E3.35371
G1 X89.327 Y107.213 E3.36559
G1 X88.577 Y107.167 E3.38061
G1 X87.830 Y107.089 E3.39561
G1 X87.087 Y106.978 E3.41062
G1 X86.348 Y106.834 E3.42564
G1 X85.618 Y106.659 E3.44065
G1 X84.895 Y106.452 E3.45567
G1 X84.183 Y106.214 E3.47067
G1 X83.480 Y105.944 E3.48571
G1 X82.792 Y105.645 E3.50071
G1 X82.116 Y105.316 E3.51573
G1 X81.455 Y104.957 E3.53075
G1 X80.811 Y104.570 E3.54575
G1 X80.184 Y104.156 E3.56077
G1 X79.576 Y103.714 E3.57579
G1 X78.988 Y103.246 E3.59079
G1 X78.420 Y102.753 E3.60582
G1 X77.875 Y102.236 E3.62082
G1 X77.353 Y101.696 E3.63584
G1 X76.855 Y101.133 E3.65085
G1 X76.382 Y100.549 E3.66587
G1 X75.935 Y99.945 E3.68089
G1 X75.514 Y99.322 E3.69590
G1 X75.122 Y98.681 E3.71091
G1 X74.802 Y98.106 E3.72406
G1 X74.355 Y97.208 E3.74409
G1 X74.055 Y96.519 E3.75910
G1 X73.786 Y95.818 E3.77412
G1 X73.548 Y95.105 E3.78913
G1 X73.341 Y94.382 E3.80415
G1 X73.166 Y93.651 E3.81916
G1 X73.022 Y92.914 E3.83417
G1 X72.911 Y92.170 E3.84919
G1 X72.833 Y91.423 E3.86421
G1 X72.787 Y90.673 E3.87922
G1 X72.774 Y89.921 E3.89423
G1 X72.794 Y89.170 E3.90925
G1 X72.847 Y88.420 E3.92426
G1 X72.932 Y87.673 E3.93928
G1 X73.050 Y86.931 E3.95430
G1 X73.200 Y86.195 E3.96931
G1 X73.382 Y85.465 E3.98432
G1 X73.595 Y84.745 E3.99934
G1 X73.840 Y84.034 E4.01435
G1 X74.116 Y83.335 E4.02936
G1 X74.422 Y82.649 E4.04438
G1 X74.757 Y81.976 E4.05939
G1 X75.122 Y81.319 E4.07441
G1 X75.514 Y80.678 E4.08942
G1 X75.935 Y80.055 E4.10444
G1 X76.382 Y79.451 E4.11945
G1 X76.855 Y78.867 E4.13447
G1 X77.353 Y78.304 E4.14948
G1 X77.776 Y77.863 E4.16169
G1 X78.220 Y78.307 F900.000
G1 X78.840 Y77.715 E4.17882 F900.000
G1 X79.387 Y77.239 E4.19329
G1 X79.953 Y76.789 E4.20776
G1 X80.539 Y76.363 E4.22223
G1 X81.143 Y75.963 E4.23669
G1 X81.764 Y75.590 E4.25116
G1 X82.400 Y75.245 E4.26563
G1 X83.051 Y74.927 E4.28009
G1 X83.582 Y74.694 E4.29168
G1 X84.256 Y74.428 E4.30615
G1 X84.941 Y74.192 E4.32062
G1 X85.774 Y73.950 E4.33796
G1 X86.478 Y73.781 E4.35242
G1 X87.189 Y73.642 E4.36689
G1 X87.905 Y73.535 E4.38136
G1 X88.482 Y73.472 E4.39295
G1 X89.204 Y73.422 E4.40742
G1 X89.928 Y73.403 E4.42189
G1 X90.652 Y73.415 E4.43635 F900.000
G1 X91.375 Y73.460 E4.45082
G1 X92.238 Y73.554 E4.46816
G1 X92.953 Y73.667 E4.48263
G1 X93.522 Y73.780 E4.49422
G1 X94.365 Y73.987 E4.51156
G1 X95.060 Y74.192 E4.52603
G1 X95.609 Y74.379 E4.53762
G1 X96.418 Y74.694 E4.55496
G1 X97.080 Y74.988 E4.56943
G1 X99.184 Y76.026 E4.61631
G1 X99.310 Y76.228 E4.62106
G1 X99.403 Y76.324 E4.62374
G1 X100.047 Y76.789 E4.63960
G1 X100.613 Y77.239 E4.65406
G1 X101.160 Y77.715 E4.66853
G1 X101.787 Y78.315 E4.68587
G1 X102.285 Y78.840 E4.70034
G1 X102.761 Y79.387 E4.71480
G1 X103.211 Y79.953 E4.72927
G1 X103.637 Y80.539 E4.74373
G1 X104.037 Y81.143 E4.75820
G1 X104.410 Y81.764 E4.77267
G1 X104.755 Y82.400 E4.78714
G1 X105.012 Y82.920 E4.79873
G1 X105.306 Y83.582 E4.81318
G1 X105.572 Y84.256 E4.82767
G1 X105.808 Y84.941 E4.84214
G1 X106.050 Y85.774 E4.85947
G1 X106.219 Y86.478 E4.87394
G1 X106.358 Y87.189 E4.88840
G1 X106.465 Y87.905 E4.90287
G1 X106.540 Y88.625 E4.91733
G1 X106.585 Y89.348 E4.93180
G1 X106.597 Y90.072 E4.94627
G1 X106.578 Y90.796 E4.96074
G1 X106.528 Y91.518 E4.97521
G1 X106.446 Y92.238 E4.98967
G1 X106.333 Y92.953 E5.00414
G1 X106.188 Y93.663 E5.01861
G1 X106.013 Y94.365 E5.03307
G1 X105.808 Y95.060 E5.04754
G1 X105.572 Y95.744 E5.06200
G1 X105.306 Y96.418 E5.07647
G1 X105.012 Y97.080 E5.09094
G1 X104.689 Y97.728 E5.10540
G1 X104.338 Y98.361 E5.11987
G1 X103.959 Y98.978 E5.13434
G1 X103.637 Y99.461 E5.14593
G1 X103.211 Y100.047 E5.16040
G1 X102.761 Y100.613 E5.17486
G1 X102.285 Y101.160 E5.18934
G1 X101.787 Y101.685 E5.20379
G1 X101.266 Y102.188 E5.21827
G1 X100.724 Y102.668 E5.23273
G1 X100.161 Y103.124 E5.24720
G1 X99.579 Y103.554 E5.26166
G1 X98.979 Y103.959 E5.27613
G1 X98.361 Y104.338 E5.29060
G1 X97.728 Y104.689 E5.30506
G1 X97.079 Y105.012 E5.31954
G1 X96.418 Y105.306 E5.33400
G1 X95.744 Y105.572 E5.34848
G1 X95.059 Y105.808 E5.36293
G1 X94.366 Y106.013 E5.37739
G1 X93.662 Y106.188 E5.39188
G1 X92.953 Y106.333 E5.40632
G1 X92.238 Y106.446 E5.42080
G1 X91.518 Y106.528 E5.43526
G1 X90.796 Y106.578 E5.44972
G1 X89.928 Y106.597 E5.46707
G1 X89.204 Y106.578 E5.48155
G1 X88.482 Y106.528 E5.49601
G1 X87.762 Y106.446 E5.51048
G1 X87.047 Y106.333 E5.52494
G1 X86.337 Y106.188 E5.53941
G1 X85.635 Y106.013 E5.55387
G1 X84.940 Y105.807 E5.56834
G1 X84.256 Y105.572 E5.58281
G1 X83.582 Y105.306 E5.59728
G1 X82.920 Y105.012 E5.61174
G1 X82.272 Y104.689 E5.62621
G1 X81.639 Y104.338 E5.64068
G1 X81.022 Y103.959 E5.65514
G1 X80.421 Y103.554 E5.66961
G1 X79.839 Y103.124 E5.68408
G1 X79.276 Y102.668 E5.69854
G1 X78.734 Y102.188 E5.71301
G1 X78.213 Y101.685 E5.72748
G1 X77.715 Y101.160 E5.74194
G1 X77.239 Y100.613 E5.75641
G1 X76.789 Y100.047 E5.77088
G1 X76.363 Y99.461 E5.78535
G1 X75.963 Y98.857 E5.79981
G1 X75.590 Y98.236 E5.81428
G1 X75.311 Y97.728 E5.82587
G1 X74.988 Y97.079 E5.84034
G1 X74.694 Y96.418 E5.85480
G1 X74.428 Y95.744 E5.86927
G1 X74.193 Y95.060 E5.88374
G1 X73.987 Y94.365 E5.89821
G1 X73.812 Y93.663 E5.91267
G1 X73.667 Y92.953 E5.92713
G1 X73.554 Y92.237 E5.94161
G1 X73.472 Y91.518 E5.95607
G1 X73.422 Y90.796 E5.97054
G1 X73.403 Y90.072 E5.98501
G1 X73.415 Y89.348 E5.99947
G1 X73.460 Y88.626 E6.01393
G1 X73.535 Y87.905 E6.02840
G1 X73.642 Y87.188 E6.04288
G1 X73.780 Y86.478 E6.05734
G1 X73.950 Y85.773 E6.07182
G1 X74.149 Y85.077 E6.08628
G1 X74.379 Y84.391 E6.10074
G1 X74.639 Y83.715 E6.11521
G1 X74.927 Y83.050 E6.12968
G1 X75.245 Y82.400 E6.14414
G1 X75.590 Y81.764 E6.15861
G1 X75.963 Y81.143 E6.17307
G1 X76.363 Y80.539 E6.18754
G1 X76.789 Y79.953 E6.20201
G1 X77.239 Y79.387 E6.21647
G1 X77.714 Y78.840 E6.23094
G1 X78.179 Y78.351 E6.24442
G1 X78.633 Y78.785 F900.000
G1 X79.164 Y78.270 E6.25919 F900.000
G1 X79.686 Y77.809 E6.27311
G1 X80.330 Y77.291 E6.28963
G1 X80.894 Y76.882 E6.30355
G1 X81.475 Y76.497 E6.31747
G1 X82.072 Y76.138 E6.33139
G1 X82.684 Y75.805 E6.34531
G1 X83.829 Y75.272 E6.37053
G1 X84.477 Y75.016 E6.38445
G1 X85.136 Y74.790 E6.39838
G1 X85.804 Y74.592 E6.41230
G1 X86.607 Y74.395 E6.42881
G1 X87.291 Y74.262 E6.44274
G1 X88.543 Y74.097 E6.46796
G1 X89.238 Y74.049 E6.48189
G1 X90.065 Y74.031 E6.49841
G1 X90.762 Y74.049 E6.51232 F900.000
G1 X91.457 Y74.097 E6.52624
G1 X92.149 Y74.176 E6.54016
G1 X92.837 Y74.285 E6.55408
G1 X94.070 Y74.558 E6.57932
G1 X94.740 Y74.750 E6.59323
G1 X95.401 Y74.972 E6.60715
G1 X96.051 Y75.222 E6.62108
G1 X96.690 Y75.500 E6.63499
G1 X98.745 Y76.510 E6.68075
G1 X98.848 Y76.675 E6.68463
G1 X98.941 Y76.771 E6.68731
G1 X99.670 Y77.291 E6.70519
G1 X100.215 Y77.725 E6.71911
G1 X100.741 Y78.182 E6.73303
G1 X101.246 Y78.662 E6.74694
G1 X101.730 Y79.164 E6.76087
G1 X102.191 Y79.686 E6.77479
G1 X102.630 Y80.227 E6.78871
G1 X103.044 Y80.787 E6.80262
G1 X103.433 Y81.365 E6.81654
G1 X103.797 Y81.959 E6.83046
G1 X104.135 Y82.568 E6.84438
G1 X104.445 Y83.192 E6.85830
G1 X104.728 Y83.828 E6.87221
G1 X104.984 Y84.477 E6.88614
G1 X105.210 Y85.136 E6.90007
G1 X105.408 Y85.804 E6.91397
G1 X105.576 Y86.480 E6.92789
G1 X105.715 Y87.162 E6.94180
G1 X105.841 Y87.980 E6.95833
G1 X105.914 Y88.673 E6.97225
G1 X105.957 Y89.368 E6.98617
G1 X105.969 Y90.065 E7.00009
G1 X105.951 Y90.762 E7.01401
G1 X105.903 Y91.457 E7.02793
G1 X105.824 Y92.149 E7.04185
G1 X105.715 Y92.837 E7.05577
G1 X105.576 Y93.520 E7.06969
G1 X105.408 Y94.196 E7.08360
G1 X105.210 Y94.864 E7.09753
G1 X104.984 Y95.523 E7.11144
G1 X104.728 Y96.171 E7.12537
G1 X104.445 Y96.808 E7.13928
G1 X104.135 Y97.431 E7.15320
G1 X103.797 Y98.041 E7.16712
G1 X103.433 Y98.635 E7.18104
G1 X102.709 Y99.670 E7.20628
G1 X102.275 Y100.215 E7.22019
G1 X101.817 Y100.741 E7.23412
G1 X101.338 Y101.246 E7.24802
G1 X100.836 Y101.730 E7.26195
G1 X100.315 Y102.191 E7.27586
G1 X99.773 Y102.630 E7.28979
G1 X99.213 Y103.044 E7.30370
G1 X98.635 Y103.433 E7.31762
G1 X98.041 Y103.797 E7.33155
G1 X97.432 Y104.134 E7.34546
G1 X96.808 Y104.445 E7.35939
G1 X96.171 Y104.729 E7.37330
G1 X95.523 Y104.984 E7.38723
G1 X94.864 Y105.210 E7.40114
G1 X94.196 Y105.408 E7.41505
G1 X93.520 Y105.576 E7.42899
G1 X92.838 Y105.715 E7.44289
G1 X92.149 Y105.824 E7.45681
G1 X91.457 Y105.903 E7.47073
G1 X90.762 Y105.951 E7.48464
G1 X89.935 Y105.969 E7.50117
G1 X89.238 Y105.951 E7.51510
G1 X88.543 Y105.903 E7.52902
G1 X87.851 Y105.824 E7.54293
G1 X87.163 Y105.715 E7.55685
G1 X86.480 Y105.576 E7.57077
G1 X85.804 Y105.408 E7.58469
G1 X85.136 Y105.210 E7.59861
G1 X84.477 Y104.984 E7.61252
G1 X83.829 Y104.728 E7.62645
G1 X83.192 Y104.445 E7.64037
G1 X82.569 Y104.135 E7.65429
G1 X81.959 Y103.797 E7.66821
G1 X81.365 Y103.433 E7.68212
G1 X80.787 Y103.044 E7.69604
G1 X80.227 Y102.629 E7.70996
G1 X79.685 Y102.191 E7.72388
G1 X79.163 Y101.730 E7.73780
G1 X78.662 Y101.246 E7.75172
G1 X78.182 Y100.740 E7.76564
G1 X77.725 Y100.215 E7.77956
G1 X77.291 Y99.670 E7.79348
G1 X76.882 Y99.106 E7.80740
G1 X76.497 Y98.525 E7.82131
G1 X76.138 Y97.928 E7.83523
G1 X75.555 Y96.808 E7.86047
G1 X75.271 Y96.171 E7.87438
G1 X75.016 Y95.523 E7.88830
G1 X74.790 Y94.864 E7.90222
G1 X74.592 Y94.196 E7.91615
G1 X74.424 Y93.520 E7.93006
G1 X74.285 Y92.837 E7.94398
G1 X74.176 Y92.149 E7.95791
G1 X74.097 Y91.457 E7.97182
G1 X74.049 Y90.762 E7.98574
G1 X74.031 Y90.065 E7.99966
G1 X74.043 Y89.369 E8.01357
G1 X74.086 Y88.673 E8.02749
G1 X74.159 Y87.980 E8.04141
G1 X74.262 Y87.291 E8.05534
G1 X74.395 Y86.607 E8.06925
G1 X74.558 Y85.929 E8.08318
G1 X74.751 Y85.260 E8.09710
G1 X74.972 Y84.599 E8.11101
G1 X75.222 Y83.949 E8.12493
G1 X75.500 Y83.310 E8.13886
G1 X75.805 Y82.684 E8.15277
G1 X76.138 Y82.072 E8.16669
G1 X76.497 Y81.475 E8.18061
G1 X76.882 Y80.894 E8.19452
G1 X77.291 Y80.330 E8.20844
G1 X77.725 Y79.785 E8.22236
G1 X78.182 Y79.260 E8.23628
G1 X78.591 Y78.828 E8.24815
G1 X79.045 Y79.263 F900.000
G1 X79.593 Y78.729 E8.26344 F900.000
G1 X80.095 Y78.286 E8.27681
G1 X80.707 Y77.794 E8.29250
G1 X81.249 Y77.400 E8.30588
G1 X81.807 Y77.030 E8.31925
G1 X82.380 Y76.685 E8.33262
G1 X82.968 Y76.366 E8.34599
G1 X84.075 Y75.849 E8.37040
G1 X84.698 Y75.604 E8.38377
G1 X85.332 Y75.387 E8.39715
G1 X85.973 Y75.197 E8.41052
G1 X86.737 Y75.010 E8.42621
G1 X87.394 Y74.882 E8.43959
G1 X88.605 Y74.723 E8.46399
G1 X89.273 Y74.676 E8.47737
G1 X89.942 Y74.659 E8.49074
G1 X90.611 Y74.671 E8.50411 F900.000
G1 X91.279 Y74.713 E8.51748
G1 X92.060 Y74.798 E8.53318
G1 X93.263 Y75.010 E8.55759
G1 X94.027 Y75.197 E8.57329
G1 X95.192 Y75.565 E8.59770
G1 X95.925 Y75.849 E8.61340
G1 X96.536 Y76.121 E8.62677
G1 X98.307 Y76.994 E8.66621
G1 X98.386 Y77.122 E8.66921
G1 X98.479 Y77.218 E8.67189
G1 X99.293 Y77.794 E8.69180
G1 X99.816 Y78.211 E8.70517
G1 X100.321 Y78.650 E8.71854
G1 X100.806 Y79.111 E8.73191
G1 X101.271 Y79.593 E8.74528
G1 X101.714 Y80.095 E8.75866
G1 X102.135 Y80.615 E8.77203
G1 X102.600 Y81.249 E8.78772
G1 X102.969 Y81.807 E8.80110
G1 X103.315 Y82.380 E8.81447
G1 X103.634 Y82.968 E8.82784
G1 X104.151 Y84.075 E8.85224
G1 X104.396 Y84.699 E8.86563
G1 X104.613 Y85.332 E8.87900
G1 X104.833 Y86.086 E8.89469
G1 X104.990 Y86.737 E8.90806
G1 X105.118 Y87.393 E8.92143
G1 X105.217 Y88.055 E8.93481
G1 X105.287 Y88.721 E8.94818
G1 X105.329 Y89.389 E8.96155
G1 X105.341 Y90.058 E8.97492
G1 X105.324 Y90.727 E8.98829
G1 X105.277 Y91.395 E9.00167
G1 X105.202 Y92.060 E9.01504
G1 X105.098 Y92.721 E9.02841
G1 X104.964 Y93.377 E9.04178
G1 X104.803 Y94.027 E9.05515
G1 X104.613 Y94.669 E9.06852
G1 X104.396 Y95.301 E9.08189
G1 X104.151 Y95.925 E9.09527
G1 X103.879 Y96.536 E9.10864
G1 X103.580 Y97.135 E9.12201
G1 X103.256 Y97.721 E9.13538
G1 X102.907 Y98.292 E9.14875
G1 X102.206 Y99.293 E9.17316
G1 X101.789 Y99.816 E9.18653
G1 X101.350 Y100.321 E9.19991
G1 X100.889 Y100.806 E9.21327
G1 X100.407 Y101.271 E9.22665
G1 X99.906 Y101.714 E9.24001
G1 X99.385 Y102.135 E9.25339
G1 X98.847 Y102.533 E9.26676
G1 X98.292 Y102.907 E9.28013
G1 X97.721 Y103.256 E9.29351
G1 X97.135 Y103.580 E9.30687
G1 X96.536 Y103.879 E9.32025
G1 X95.924 Y104.151 E9.33362
G1 X95.301 Y104.396 E9.34700
G1 X94.669 Y104.613 E9.36036
G1 X94.027 Y104.803 E9.37372
G1 X93.377 Y104.965 E9.38711
G1 X92.722 Y105.097 E9.40047
G1 X92.060 Y105.202 E9.41384
G1 X91.395 Y105.277 E9.42721
G1 X90.728 Y105.324 E9.44058
G1 X89.942 Y105.341 E9.45628
G1 X89.273 Y105.324 E9.46966
G1 X88.605 Y105.277 E9.48303
G1 X87.940 Y105.202 E9.49640
G1 X87.279 Y105.098 E9.50977
G1 X86.623 Y104.964 E9.52315
G1 X85.973 Y104.803 E9.53651
G1 X85.331 Y104.613 E9.54989
G1 X84.699 Y104.396 E9.56326
G1 X84.075 Y104.151 E9.57663
G1 X83.464 Y103.879 E9.59000
G1 X82.865 Y103.580 E9.60337
G1 X82.279 Y103.256 E9.61675
G1 X81.708 Y102.907 E9.63012
G1 X81.153 Y102.533 E9.64349
G1 X80.615 Y102.135 E9.65686
G1 X80.095 Y101.714 E9.67023
G1 X79.593 Y101.271 E9.68360
G1 X79.111 Y100.806 E9.69697
G1 X78.650 Y100.321 E9.71035
G1 X78.211 Y99.816 E9.72372
G1 X77.794 Y99.293 E9.73709
G1 X77.400 Y98.751 E9.75046
G1 X77.030 Y98.193 E9.76383
G1 X76.685 Y97.620 E9.77720
G1 X76.121 Y96.536 E9.80162
G1 X75.849 Y95.924 E9.81498
